X:20016
T:Turkey in the Straw
R:Reel
C:Trad.
O:USA
M:4/4
L:1/8
Q:1/4=140
K:D
"A7"fe|"D"dcde d2 FG|ABAF A2 de|f2 f2 fede|"A7"f2 e2 e2 fe|
"D"dcde d2 FG|ABAF A2 de|f a2 b afde|"D"f2 "A7"e2 "D"d2:|
|:a2|"D"f a2 f a2 a2|f a2 f a2 a2|"G"g b2 g b2 b2|g b2 g b2 b2
|"D"d'2 d'2 a2 a2|f2 f2 "A7"e2 de|f a2 b afde|"D"f2 "A7"e2 "D"d2:|
% --------------------------------- U ---------------------------------------
% --------------------------------- V ---------------------------------------

